build/svg/cmd/lc_customshowdialog.svg

<?xml version="1.0" encoding="UTF-8" standalone="no"?>
<svg
   xmlns:dc="http://purl.org/dc/elements/1.1/"
   xmlns:cc="http://creativecommons.org/ns#"
   xmlns:rdf="http://www.w3.org/1999/02/22-rdf-syntax-ns#"
   xmlns:svg="http://www.w3.org/2000/svg"
   xmlns="http://www.w3.org/2000/svg"
   xmlns:sodipodi="http://sodipodi.sourceforge.net/DTD/sodipodi-0.dtd"
   xmlns:inkscape="http://www.inkscape.org/namespaces/inkscape"
   viewBox="0 0 24 24"
   version="1.1"
   id="svg4"
   sodipodi:docname="lc_customshowdialog.svg"
   inkscape:export-filename="/home/jupiter007/Libreoffice yaru theme fullcolor/build/cmd/lc_customshowdialog.png"
   inkscape:export-xdpi="96"
   inkscape:export-ydpi="96"
   inkscape:version="0.92.5 (2060ec1f9f, 2020-04-08)">
  <metadata
     id="metadata10">
    <rdf:RDF>
      <cc:Work
         rdf:about="">
        <dc:format>image/svg+xml</dc:format>
        <dc:type
           rdf:resource="http://purl.org/dc/dcmitype/StillImage" />
      </cc:Work>
    </rdf:RDF>
  </metadata>
  <defs
     id="defs8" />
  <sodipodi:namedview
     pagecolor="#ffffff"
     bordercolor="#666666"
     borderopacity="1"
     objecttolerance="10"
     gridtolerance="10"
     guidetolerance="10"
     inkscape:pageopacity="0"
     inkscape:pageshadow="2"
     inkscape:window-width="1920"
     inkscape:window-height="1011"
     id="namedview6"
     showgrid="true"
     inkscape:zoom="19.666667"
     inkscape:cx="11.214275"
     inkscape:cy="2.5583553"
     inkscape:window-x="0"
     inkscape:window-y="32"
     inkscape:window-maximized="1"
     inkscape:current-layer="svg4">
    <inkscape:grid
       type="xygrid"
       id="grid841" />
  </sodipodi:namedview>
  <path
     id="path826"
     d="M 2.0000001,6.0000613 V 18.000061 c 0,1.662001 1.338,3.000001 3,3.000001 H 19 c 1.662,0 3,-1.338 3,-3.000001 V 6.0000613 Z"
     style="opacity:0.6;fill:#000000;fill-opacity:1;fill-rule:evenodd;stroke:#000000;stroke-width:2;stroke-linecap:butt;stroke-linejoin:round;stroke-miterlimit:4;stroke-dasharray:none;stroke-opacity:1"
     inkscape:connector-curvature="0"
     sodipodi:nodetypes="csssscc" />
  <rect
     style="opacity:1;fill:#6d6d6d;fill-opacity:1;fill-rule:evenodd;stroke:none;stroke-width:2;stroke-linecap:butt;stroke-linejoin:round;stroke-miterlimit:4;stroke-dasharray:none;stroke-opacity:1"
     id="rect819"
     width="24"
     height="3"
     x="0"
     y="3.0000615" />
  <path
     style="opacity:1;fill:#ffffff;fill-opacity:1;fill-rule:evenodd;stroke:none;stroke-width:2;stroke-linecap:butt;stroke-linejoin:round;stroke-miterlimit:4;stroke-dasharray:none;stroke-opacity:1"
     d="M 2.0000001,6.0000613 V 18.000061 c 0,1.662001 1.338,3.000001 3,3.000001 H 19 c 1.662,0 3,-1.338 3,-3.000001 V 6.0000613 Z"
     id="rect821"
     inkscape:connector-curvature="0"
     sodipodi:nodetypes="csssscc" />
  <rect
     style="opacity:1;fill:#1a7fd4;fill-opacity:1;fill-rule:evenodd;stroke:none;stroke-width:3.65148377;stroke-linecap:butt;stroke-linejoin:round;stroke-miterlimit:4;stroke-dasharray:none;stroke-opacity:1"
     id="rect830"
     width="5"
     height="2"
     x="4"
     y="9.000061" />
  <rect
     style="opacity:1;fill:#c7162b;fill-opacity:1;fill-rule:evenodd;stroke:none;stroke-width:3.65148354;stroke-linecap:butt;stroke-linejoin:round;stroke-miterlimit:4;stroke-dasharray:none;stroke-opacity:1"
     id="rect832"
     width="5"
     height="2"
     x="4"
     y="12.000061" />
  <rect
     style="opacity:1;fill:#46a926;fill-opacity:1;fill-rule:evenodd;stroke:none;stroke-width:3.65148354;stroke-linecap:butt;stroke-linejoin:round;stroke-miterlimit:4;stroke-dasharray:none;stroke-opacity:1"
     id="rect834"
     width="5"
     height="2"
     x="4"
     y="15.000061" />
  <path
     style="opacity:1;fill:#46a926;fill-opacity:1;fill-rule:evenodd;stroke:none;stroke-width:2;stroke-linecap:butt;stroke-linejoin:round;stroke-miterlimit:4;stroke-dasharray:none;stroke-opacity:1"
     id="path820"
     sodipodi:type="arc"
     sodipodi:cx="15.500001"
     sodipodi:cy="13.500061"
     sodipodi:rx="4.5"
     sodipodi:ry="4.5"
     sodipodi:start="0"
     sodipodi:end="4.712389"
     d="m 20.000001,13.500061 a 4.5,4.5 0 0 1 -2.777925,4.157458 4.5,4.5 0 0 1 -4.904056,-0.975477 4.5,4.5 0 0 1 -0.975477,-4.904056 4.5,4.5 0 0 1 4.157458,-2.777925 l 0,4.5 z" />
  <path
     d="m 9.000061,-15.500001 a 4.5,4.5 0 0 1 4.5,-4.5 l 0,4.5 z"
     sodipodi:end="4.712389"
     sodipodi:start="3.1415927"
     sodipodi:ry="4.5"
     sodipodi:rx="4.5"
     sodipodi:cy="-15.500001"
     sodipodi:cx="13.500061"
     sodipodi:type="arc"
     id="path822"
     style="opacity:1;fill:#c7162b;fill-opacity:1;fill-rule:evenodd;stroke:none;stroke-width:2;stroke-linecap:butt;stroke-linejoin:round;stroke-miterlimit:4;stroke-dasharray:none;stroke-opacity:1"
     transform="rotate(90)" />
  <path
     id="path853"
     d="M 19.5 14 A 2.5 2.5 0 0 0 17 16.5 A 2.5 2.5 0 0 0 19.5 19 A 2.5 2.5 0 0 0 22 16.5 A 2.5 2.5 0 0 0 19.5 14 z M 19.5 19 A 3.5 4 0 0 0 16 23 L 23 23 A 3.5 4 0 0 0 19.5 19 z "
     style="opacity:0.6;fill:#000000;fill-opacity:1;fill-rule:evenodd;stroke:#000000;stroke-width:2;stroke-linecap:butt;stroke-linejoin:round;stroke-miterlimit:4;stroke-dasharray:none;stroke-opacity:1" />
  <path
     style="opacity:1;fill:#aee3f8;fill-opacity:1;fill-rule:evenodd;stroke:none;stroke-width:2;stroke-linecap:butt;stroke-linejoin:round;stroke-miterlimit:4;stroke-dasharray:none;stroke-opacity:1"
     d="M 19.5 14 A 2.5 2.5 0 0 0 17 16.5 A 2.5 2.5 0 0 0 19.5 19 A 2.5 2.5 0 0 0 22 16.5 A 2.5 2.5 0 0 0 19.5 14 z M 19.5 19 A 3.5 4 0 0 0 16 23 L 23 23 A 3.5 4 0 0 0 19.5 19 z "
     id="path843" />
</svg>

<svg xmlns="http://www.w3.org/2000/svg" viewBox="0 0 24 24"><path d="M2 6v12c0 1.662 1.338 3 3 3h14c1.662 0 3-1.338 3-3V6z" opacity=".6" fill-rule="evenodd" stroke="#000" stroke-width="2" stroke-linejoin="round"/><path fill="#6d6d6d" fill-rule="evenodd" d="M0 3h24v3H0z"/><path d="M2 6v12c0 1.662 1.338 3 3 3h14c1.662 0 3-1.338 3-3V6z" fill="#fff" fill-rule="evenodd"/><path fill="#1a7fd4" fill-rule="evenodd" d="M4 9h5v2H4z"/><path fill="#c7162b" fill-rule="evenodd" d="M4 12h5v2H4z"/><path fill="#46a926" fill-rule="evenodd" d="M4 15h5v2H4zM20 13.5a4.5 4.5 0 01-2.778 4.158 4.5 4.5 0 01-4.904-.976 4.5 4.5 0 01-.975-4.904A4.5 4.5 0 0115.5 9v4.5z"/><path d="M15.5 9a4.5 4.5 0 014.5 4.5h-4.5z" fill="#c7162b" fill-rule="evenodd"/><path d="M19.5 14a2.5 2.5 0 00-2.5 2.5 2.5 2.5 0 002.5 2.5 2.5 2.5 0 002.5-2.5 2.5 2.5 0 00-2.5-2.5zm0 5a3.5 4 0 00-3.5 4h7a3.5 4 0 00-3.5-4z" opacity=".6" fill-rule="evenodd" stroke="#000" stroke-width="2" stroke-linejoin="round"/><path d="M19.5 14a2.5 2.5 0 00-2.5 2.5 2.5 2.5 0 002.5 2.5 2.5 2.5 0 002.5-2.5 2.5 2.5 0 00-2.5-2.5zm0 5a3.5 4 0 00-3.5 4h7a3.5 4 0 00-3.5-4z" fill="#aee3f8" fill-rule="evenodd"/></svg>
